X:1
T:Title
%%score { 1 | ( 2 3 ) }
L:1/8
M:6/8
K:Eb
V:1 treble nm="Grand Piano"
V:2 bass 
V:3 bass 
V:1
 z3 z2[Q:1/4=100] B | B>BB =ABc | B3 G2 G | [DB]2 [DF] [DF][EG][FA] | G3- G2 E | %5
 c>cc [Ec][CEA][Ec] | B3 G2 G | F2 F/F/ FG=A |[M:5/8] [DB]-[DB]- [DB]3 |[M:1/8] B | %10
[M:3/4] d<.d dd cB | [_Gc]3 [=GB]2 [EG] | [DB]>[DF] [DF][DF] [EG][FA] | G4- GE | %14
 [Ec][Ec] [Ec]c de |[M:7/8] e3 =A3 c |[M:3/4] B>A G[=A,EG] [B,DG][_A,DF] | %17
[M:5/8] [G,E]-[G,E]- [G,E]3 |] %18
V:2
 z3 z2 [E,G,E] | [E,G,E]>[E,G,E][E,G,E] [E,_G,E][E,=G,E][E,A,E] | [E,G,E]3 [E,B,E]2 [E,G,E] | %3
 [B,,F,]2 [B,,B,] [B,,B,][B,,B,][D,B,] | [E,B,E]3- [E,B,E]2 [E,G,] | %5
 [A,E]>[A,E][A,E] [A,,A,]A,,[A,,A,] | [E,G,E]3 [E,B,E]2 [E,B,E] | %7
 [F,=A,E]2 E/E/ [F,A,E][F,B,E][F,CE] |[M:5/8] [B,,B,]-[B,,B,]- [B,,B,]3 |[M:1/8][K:treble] [B,DA] | %10
[M:3/4] [B,FA]<.[B,FA] [B,FA][B,FA] [B,EA][B,DA] | [E,E]3 [E,E]2 [E,B,] | %12
 [B,,B,]>[B,,B,] [B,,B,][B,,B,] [B,,B,][B,,B,] | [E,B,E]4- [E,B,E][E,G,] | %14
 [A,,A,][A,,A,] [A,,A,][A,E] [A,B,E][A,CE] |[M:7/8] [G,B,E]3 [_G,CE]3 [G,=A,E] | %16
[M:3/4] [G,B,E]>[F,B,E] [E,B,E]C, B,,B,, |[M:5/8] E,-E,- E,3 |] %18
V:3
 x6 | x6 | x6 | x6 | x6 | x6 | x6 | z2 [F,=A,] z3 |[M:5/8] x5 |[M:1/8][K:treble] x |[M:3/4] x6 | %11
 x6 | x6 | x6 | x6 |[M:7/8] x7 |[M:3/4] x6 |[M:5/8] x5 |] %18

